svg/fluentui-system-icons/ic_fluent_fps_960_24_regular.svg

<svg width="24" height="24" viewBox="0 0 24 24" fill="none" xmlns="http://www.w3.org/2000/svg">
<path d="M11.75 14.9992C12.9927 14.9992 14 16.0066 14 17.2492C14 18.4401 13.0749 19.4148 11.9041 19.494L11.75 19.4992H11V21.2492C11 21.6289 10.7179 21.9427 10.3518 21.9924L10.25 21.9992C9.87032 21.9992 9.55653 21.717 9.50687 21.351L9.50002 21.2492V15.7492C9.50002 15.3695 9.78217 15.0557 10.1482 15.006L10.25 14.9992H11.75ZM18 14.9992C19.1046 14.9992 20 15.8946 20 16.9992C20 17.4134 19.6642 17.7492 19.25 17.7492C18.8703 17.7492 18.5565 17.467 18.5069 17.101L18.5 16.9992C18.5 16.7537 18.3231 16.5496 18.0899 16.5073L18 16.4992H17.375C17.0298 16.4992 16.75 16.779 16.75 17.1242C16.75 17.438 16.9813 17.6978 17.2827 17.7424L17.375 17.7492H17.875C19.0486 17.7492 20 18.7006 20 19.8742C20 20.9968 19.1296 21.9161 18.0268 21.9939L17.875 21.9992H17.25C16.1455 21.9992 15.25 21.1038 15.25 19.9992C15.25 19.585 15.5858 19.2492 16 19.2492C16.3797 19.2492 16.6935 19.5314 16.7432 19.8974L16.75 19.9992C16.75 20.2447 16.9269 20.4488 17.1601 20.4911L17.25 20.4992H17.875C18.2202 20.4992 18.5 20.2194 18.5 19.8742C18.5 19.5604 18.2688 19.3006 17.9674 19.256L17.875 19.2492H17.375C16.2014 19.2492 15.25 18.2978 15.25 17.1242C15.25 16.0016 16.1205 15.0824 17.2233 15.0045L17.375 14.9992H18ZM7.75002 14.9992C8.16423 14.9992 8.50002 15.335 8.50002 15.7492C8.50002 16.1289 8.21787 16.4427 7.85179 16.4924L7.75002 16.4992L5.50002 16.4983V18.0013L7.25002 18.002C7.66423 18.002 8.00002 18.3378 8.00002 18.752C8.00002 19.1317 7.71787 19.4455 7.35179 19.4952L7.25002 19.502L5.50002 19.5013V21.2304C5.50002 21.6101 5.21787 21.9239 4.85179 21.9736L4.75002 21.9804C4.37032 21.9804 4.05653 21.6983 4.00687 21.3322L4.00002 21.2304V15.7492C4.00002 15.3695 4.28217 15.0557 4.64825 15.006L4.75002 14.9992H7.75002ZM11.75 16.4992H11V17.9992H11.75C12.1642 17.9992 12.5 17.6634 12.5 17.2492C12.5 16.8695 12.2179 16.5557 11.8518 16.5061L11.75 16.4992ZM12.0005 3C13.5982 2.99943 14.9046 4.24788 14.9964 5.82264L15.0016 5.99891V6.17106C15.0016 6.58528 14.6658 6.92106 14.2516 6.92106C13.8719 6.92106 13.5581 6.63891 13.5084 6.27283L13.5016 6.17106V5.99971L13.4946 5.85499C13.4217 5.09438 12.7807 4.49972 12.0011 4.5C11.2207 4.50028 10.5796 5.09573 10.5069 5.85699L10.5 6.00157L10.4999 7.39971C10.9412 7.1445 11.4536 6.99843 12 6.99843C13.6573 6.99843 15.0008 8.34192 15.0008 9.9992C15.0008 11.6565 13.6573 13 12 13C10.4019 13 9.09561 11.7507 9.00434 10.1755L8.99925 9.9992L9.00002 6.00157C9.00002 4.34426 10.3432 3.00059 12.0005 3ZM5.00002 3.00002C6.59811 3.00002 7.90443 4.24927 7.9957 5.82448L8.00079 6.0008L8.00002 9.99843C8.00002 11.6557 6.65653 12.9992 4.99925 12.9992C3.40115 12.9992 2.09484 11.75 2.00357 10.1747L1.99847 9.99843V9.82894C1.99847 9.41473 2.33426 9.07894 2.74847 9.07894C3.12817 9.07894 3.44197 9.36109 3.49163 9.72717L3.49847 9.82894V9.99843C3.49847 10.8273 4.17039 11.4992 4.99925 11.4992C5.77934 11.4992 6.42043 10.904 6.49315 10.143L6.50002 9.99843L6.50012 8.60029C6.05881 8.8555 5.54647 9.00157 5.00002 9.00157C3.34274 9.00157 1.99925 7.65808 1.99925 6.0008C1.99925 4.34352 3.34274 3.00002 5.00002 3.00002ZM19.0057 3.0008C20.6003 3.0008 21.9039 4.24736 21.9949 5.8192L22 5.99514V10.0049C22 11.5995 20.7535 12.903 19.1816 12.9941L19.0057 12.9992L18.8184 12.9941C17.3048 12.9064 16.0928 11.6944 16.0051 10.1808L16 10.0049V5.99514C16 4.40047 17.2466 3.09696 18.8184 3.00588L19.0057 3.0008ZM12 8.49843C11.2199 8.49843 10.5788 9.09363 10.5061 9.85467L10.5 9.9992C10.5042 10.833 11.1742 11.5 12 11.5C12.8289 11.5 13.5008 10.8281 13.5008 9.9992C13.5008 9.17035 12.8289 8.49843 12 8.49843ZM19.0057 4.5008H18.9944C18.2176 4.5008 17.5793 5.09344 17.5069 5.85122L17.5 5.99514V10.0049C17.5 10.7816 18.0927 11.42 18.8504 11.4924L18.9944 11.4992L19.1496 11.4924C19.86 11.4245 20.4253 10.8592 20.4932 10.1488L20.5 10.0049V5.99514C20.5 5.16984 19.831 4.5008 19.0057 4.5008ZM5.00002 4.50002C4.17117 4.50002 3.49925 5.17194 3.49925 6.0008C3.49925 6.82965 4.17117 7.50157 5.00002 7.50157C5.78012 7.50157 6.4212 6.90638 6.49392 6.14533L6.50002 6.0008C6.49585 5.16701 5.82583 4.50002 5.00002 4.50002Z" fill="#212121"/>
</svg>

<svg xmlns="http://www.w3.org/2000/svg" width="24" height="24"><path d="M11.75 15a2.25 2.25 0 0 1 .154 4.494l-.154.005H11v1.75a.75.75 0 0 1-.648.743L10.25 22a.75.75 0 0 1-.743-.648L9.5 21.25v-5.5a.75.75 0 0 1 .648-.743L10.25 15h1.5ZM18 15a2 2 0 0 1 2 2 .75.75 0 0 1-1.493.101l-.007-.102a.5.5 0 0 0-.41-.492L18 16.5h-.625a.625.625 0 0 0-.092 1.243l.092.007h.5a2.125 2.125 0 0 1 .152 4.245l-.152.005h-.625a2 2 0 0 1-2-2 .75.75 0 0 1 1.493-.102l.007.102a.5.5 0 0 0 .41.492l.09.008h.625a.625.625 0 0 0 .092-1.243l-.092-.007h-.5a2.125 2.125 0 0 1-.152-4.244l.152-.006H18ZM7.75 15a.75.75 0 0 1 .102 1.492l-.102.007H5.5V18l1.75.001a.75.75 0 0 1 .102 1.493l-.102.007H5.5v1.728a.75.75 0 0 1-.648.744l-.102.006a.75.75 0 0 1-.743-.648L4 21.23v-5.48a.75.75 0 0 1 .648-.744l.102-.007h3Zm4 1.5H11V18h.75a.75.75 0 0 0 .102-1.494l-.102-.007ZM12 3a3 3 0 0 1 2.996 2.823l.006.176v.172a.75.75 0 0 1-1.494.102l-.006-.102V6l-.007-.145a1.5 1.5 0 0 0-2.988.002l-.007.145V7.4a3 3 0 1 1-1.496 2.776L9 9.998V6.002A3.002 3.002 0 0 1 12 3ZM5 3a3 3 0 0 1 2.996 2.824L8 6.001v3.997a3 3 0 0 1-5.996.177l-.006-.177v-.17a.75.75 0 0 1 1.494-.1l.006.1v.17a1.5 1.5 0 0 0 2.995.145l.007-.145V8.6A3 3 0 1 1 5 3Zm14.006 0a2.994 2.994 0 0 1 2.989 2.82l.005.175v4.01a2.994 2.994 0 0 1-2.818 2.99l-.176.004-.188-.005a2.995 2.995 0 0 1-2.813-2.813L16 10.005v-4.01a2.995 2.995 0 0 1 2.818-2.99l.188-.004ZM12 8.499a1.5 1.5 0 0 0-1.494 1.357L10.5 10a1.502 1.502 0 0 0 3 0A1.5 1.5 0 0 0 12 8.5Zm7.006-3.997h-.012c-.776 0-1.415.592-1.487 1.35l-.007.144v4.01c0 .777.593 1.415 1.35 1.487l.144.007.156-.007a1.495 1.495 0 0 0 1.343-1.343l.007-.144v-4.01c0-.825-.669-1.494-1.494-1.494ZM5 4.5a1.5 1.5 0 1 0 1.494 1.645l.006-.144A1.502 1.502 0 0 0 5 4.5Z"/></svg>
